X: 70
T:Madame Del Caro's Hornpipe. WM.070a
M:2/4
L:1/8
Q:280
S:Wm.Mittell's MS,New Romney,Kent,1799
R:Hornpipe
O:England
A:Kent
Z:vmp.Chris Partington
K:A
A>ce>a|g>fe>f|e>dc>B|c>de2|!A>ce>a|g>fe>d|c>BA>G|A2A2:|!
|:A>ce>a|(f/g/a) (f/g/a)|E>GB>d|(c/d/e) (c/d/e)|!
A>ce>a|(f/g/a) (f/g/a)|c>BA>G|A2A2:|]
